!!!!SEGMENT: pl-kk--kk-i-6--013_anonim--sanctus.krn
!!!cenid: 16xx:968
!!!COM: Anonim
!!!COM-rismID: pe30004985
!!!CDT:
!!!CNT:
!!!OTL: Sanctus
!!!PDT:
!!!AGN: Sacred
!!!SMS-siglum: PL-Kk
!!!SMS-shelfmark: Kk.I.6
!!!SMS-shelfwork: 013 W
!!!SMS-variant:
!!!SMS-altvar:
!!!NIFC-rismSourceID: 1001135684
!!!NIFC-islandoraID: pl-kk:1634
!!!URL-pdf-islandora: https://repozytorium.nifc.pl/islandora/object/pl-kk%3A1634/datastream/PDF/view
!!!URL-scan: https://polish.musicsources.pl/pl/lokalizacje/galeria/rekopisy/6133 @EN{Scan on Polish Music Herritage in Open Access Website} @PL{Skany w portalu Dziedzictwo Muzyki Polskiej w otwartym dostępie}
!!!ONB-nifc: UWAGA: C (skan 0011, s. 18-19), T (skan 0111-0112, s. 27-29), B (skan 0223-0224, s. 26-28) Następny utwór: Ave hierarchia
!!!AIN: 1 empty 1 tenor 1 vox
!!!key:
**kern	**text	**kern	**text	**kern	**text
*part3	*part3	*part2	*part2	*part1	*part1
*staff3	*staff3	*staff2	*staff2	*staff1	*staff1
*Iempty	*	*Itenor	*	*Ivox	*
*I"Baſsus.	*	*I"Tenor.	*	*I"Cantus.	*
*I'B	*	*I'T	*	*I'S	*
*clefF4	*	*clefC4	*	*clefC4	*
*k[b-]	*	*k[b-]	*	*k[b-]	*
*F:	*	*F:	*	*F:	*
*M2/1	*	*M2/1	*	*M2/1	*
*met(C|)	*	*met(C|)	*	*met(C|)	*
=1-	=1-	=1-	=1-	=1-	=1-
*lig	*	*	*	*	*
!LO:TX:a:t=Aue Maria. \nUt Supra fol. 6.	!	!LO:TX:a:t=Ave Maria \nUt Supra \nfol. 6.	!	!	!
!LO:TX:a:t=Offertorium	!	!LO:TX:a:t=Offertorium	!	!	!
*	*	*	*	*lig	*
1C	SAn-	2rd	.	1c	San-
.	.	1c	San-	.	.
1G	.	.	.	1d	.
.	.	2B-\	.	.	.
*Xlig	*	*	*	*Xlig	*
=2-	=2-	=2-	=2-	=2-	=2-
*	*	*	*	*lig	*
2.A\	.	2c\	.	1c	.
.	.	2A/	.	.	.
4G\	.	.	.	.	.
4F\	.	2d\	-ctus	1A	.
4E\	.	.	.	.	.
4D/	.	1c\	.	.	.
4C/	.	.	.	.	.
*	*	*	*	*Xlig	*
=3-	=3-	=3-	=3-	=3-	=3-
1D	.	.	.	1F	.
.	.	2B-\	.	.	.
*custos:FF	*	*	*	*	*
*	*	*	*	*lig	*
1C	-ct(us)	1c	.	1G	.
!LO:LB:g=original	!	!	!	!	!
=4-	=4-	=4-	=4-	=4-	=4-
*	*ij	*	*	*	*
4FF/	SAn-	2r	.	1A	.
4GG/	.	.	.	.	.
*	*	*	*ij	*	*
4AA/	.	1c	San-	.	.
4BB-/	.	.	.	.	.
*	*	*	*	*Xlig	*
2C/	.	.	.	0G	.
2D/	.	2B-\	.	.	.
=5-	=5-	=5-	=5-	=5-	=5-
1C	.	1c	.	.	.
0FFl;;	-ct(us)	0cl;;	-ctus	0Fl;;	-ctus
*	*Xij	*	*Xij	*	*
!	!	!LO:PB:g=original	!	!	!
=6-	=6-	=6-	=6-	=6-	=6-
.	.	.	.	.	.
*	*	*	*	*lig	*
2.BB-/	San-	2.F/	San-	1B-	San-
4AA/	.	4G/	.	.	.
=7-	=7-	=7-	=7-	=7-	=7-
4FF/	.	4A/	.	1A	.
4GG/	.	4B-\	.	.	.
4AA/	.	1.c	.	.	.
4BB-/	.	.	.	.	.
*	*	*	*	*Xlig	*
*	*	*	*	*lig	*
4C/	.	.	.	1G	.
4D/	.	.	.	.	.
2E\	.	.	.	.	.
=8-	=8-	=8-	=8-	=8-	=8-
2D/	.	2d\	.	1A	.
2F\	.	4c\	.	.	.
.	.	4B-\	.	.	.
*	*	*	*	*Xlig	*
*	*	*	*	*lig	*
1C	.	2.c\	.	1G	-ctus.
.	.	4B-\	.	.	.
=9-	=9-	=9-	=9-	=9-	=9-
1FF	-ctus	4A/	.	[0Fl;;	.
.	.	4G/	.	.	.
.	.	2A/	.	.	.
*	*ij	*	*	*	*
1BB-	San-	1B-	.	.	.
*	*	*	*	*Xlig	*
=10-	=10-	=10-	=10-	=10-	=10-
0FFl;;	-ctus	0Al;;	-ctus	0F]	.
*	*Xij	*	*	*	*
!LO:LB:g=original	!	!LO:LB:g=original	!	!LO:LB:g=original	!
=11-	=11-	=11-	=11-	=11-	=11-
*	*	*	*	*lig	*
1r	.	1r	.	1F	San-
2r	.	2.c\	SAn-	1A	.
1F\	San-	.	.	.	.
.	.	4B-\	.	.	.
*	*	*	*	*Xlig	*
=12-	=12-	=12-	=12-	=12-	=12-
*	*	*	*	*lig	*
.	.	2A/	.	1c	.
2E\	.	2G/	.	.	.
2D/	.	2A/	.	1d	.
2BB-/	.	2B-\	.	.	.
*	*	*	*	*Xlig	*
=13-	=13-	=13-	=13-	=13-	=13-
*lig	*	*	*	*lig	*
1C	.	1G	-ctus	1c	.
1D	.	4F/	San-	1f	.
.	.	4G/	.	.	.
.	.	4A/	.	.	.
.	.	4B-\	.	.	.
*Xlig	*	*	*	*Xlig	*
=14-	=14-	=14-	=14-	=14-	=14-
*	*	*	*	*lig	*
2AA/	-ctus	1c	.	1e	.
*	*ij	*	*	*	*
2C/	San-	.	.	.	.
2D/	.	2A/	.	1d	.
2BB-/	.	2B-\	.	.	.
*	*	*	*	*Xlig	*
=15-	=15-	=15-	=15-	=15-	=15-
*	*	*custos:B-	*	*	*
1C	.	1G	-ctus	1c	.
!	!	!LO:LB:g=original	!	!	!
*	*	*	*ij	*lig	*
2BB-/	.	2B-\	San-	1d	.
2B-\	.	1d\	.	.	.
=16-	=16-	=16-	=16-	=16-	=16-
4A\	.	.	.	1e	.
4B-\	.	.	.	.	.
4c\	.	2c\	.	.	.
*custos:B	*	*	*	*	*
4A\	.	.	.	.	.
*	*	*	*	*Xlig	*
!LO:LB:g=original	!	!	!	!	!
*	*	*	*	*lig	*
2.B-\	.	2B-\	.	1d	.
.	.	1d\	-ctus	.	.
*	*	*	*Xij	*	*
4A\	.	.	.	.	.
=17-	=17-	=17-	=17-	=17-	=17-
1G	.	.	.	1B-	.
.	.	4c\	.	.	.
.	.	4B-\	.	.	.
*	*	*	*	*Xlig	*
!LO:TX:t=P:problem=cezura na 1. linii	!	!	!	!LO:TX:t=P:problem=cezura na 3. linii	!
2F,\	-ctus	2r	.	1c,	-ctus
*	*Xij	*	*	*	*
1F\	Do-	1A\	Do-	.	.
=18-	=18-	=18-	=18-	=18-	=18-
.	.	.	.	1f	Do-
2F\	-mi-	2A/	-mi-	.	.
*	*	*	*	*custos:f	*
1BB-	-nus	1B-	-nus	1d	-mi-
!	!	!	!	!LO:LB:g=original	!
=19-	=19-	=19-	=19-	=19-	=19-
!	!	!	!	!LO:TX:t=P:problem=bezura na 3. polu	!
1BB-	De-	2.B-\	De-	1f,	-nus
.	.	4A/	.	.	.
*	*	*	*	*lig	*
1C	-us	1G	.	1e	De-
=20-	=20-	=20-	=20-	=20-	=20-
2D/	Sab-	2F/	-us	1f	.
2BB-/	.	2B-\	.	.	.
*	*	*	*	*Xlig	*
2.C/	.	2G/	.	1e	.
.	.	2.G/	.	.	.
4BB-/	.	.	.	.	.
=21-	=21-	=21-	=21-	=21-	=21-
*	*	*	*	*lig	*
1GG	.	.	.	1d	.
.	.	4A/	.	.	.
.	.	1A	.	.	.
2AA/	.	.	.	1c	.
2FF/	.	2ryy	.	.	.
*	*	*	*	*Xlig	*
=22-	=22-	=22-	=22-	=22-	=22-
*	*	*custos:f	*	*	*
1BB-	-ba-	2F/	.	1d	.
!	!	!LO:LB:g=original	!	!	!
.	.	2f\	Sab-	.	.
!	!	!	!	!LO:TX:t=P:problem=cezura na 2. polu	!
2FF/	-oth	2.f\	-ba-	1c,	-us
*custos:F	*	*	*	*	*
2F\	Sab-	.	.	.	.
.	.	4e\	.	.	.
!LO:LB:g=original	!	!	!	!	!
=23-	=23-	=23-	=23-	=23-	=23-
*	*	*	*	*lig	*
2.F\	-ba-	2d\	.	1A	Sab-
.	.	2c\	.	.	.
4E\	.	.	.	.	.
2.D/	.	2B-\	.	1F	.
.	.	2.A/	.	.	.
4C/	.	.	.	.	.
*	*	*	*	*Xlig	*
=24-	=24-	=24-	=24-	=24-	=24-
*	*	*	*	*lig	*
2BB-/	.	.	.	1B-	.
.	.	4G/	.	.	.
2GG/	.	2.G/	.	.	.
2AA/	.	.	.	1A	.
.	.	4F/	.	.	.
2FF/	-oth	1F/	.	.	.
*	*	*	*	*Xlig	*
=25-	=25-	=25-	=25-	=25-	=25-
*	*ij	*	*	*lig	*
2.C/	Sab-	.	.	1G	.
.	.	2E/	.	.	.
4BB-/	.	.	.	.	.
2AA/	.	2F/	-oth	1A	.
2FF/	.	1c\	Sab-	.	.
*	*	*	*	*Xlig	*
=26-	=26-	=26-	=26-	=26-	=26-
*	*	*	*	*lig	*
1C	-ba-	.	.	1G	-ba-
.	.	2c\	-ba-	.	.
0FFl;;	-oth	0Al;;	-oth	0Fl;;	-oth.
*	*Xij	*	*	*Xlig	*
!LO:PB:g=original	!	!LO:LB:g=original	!	!LO:LB:g=original	!
=27-	=27-	=27-	=27-	=27-	=27-
.	.	.	.	.	.
2.AA/	Ple-	2.A/	Ple-	1A	Ple-
4BB-/	.	4G/	.	.	.
=28-	=28-	=28-	=28-	=28-	=28-
2C/	.	4E/	.	1G	-ni
.	.	4F/	.	.	.
2BB-/	.	2G/	.	.	.
2AA/	.	2A/	-ni	1F	sunt
2BB-/	-ni	1F/	Sunt	.	.
=29-	=29-	=29-	=29-	=29-	=29-
*	*	*	*	*lig	*
1GG	sunt	.	.	1G	Cae-
.	.	2E/	Cae-	.	.
1FF	Cae-	2F/	-li	1A	.
.	.	2F/	et	.	.
*	*	*	*	*Xlig	*
=30-	=30-	=30-	=30-	=30-	=30-
2FF/	-li	2.F/	ter-	1A	-li
1F	et	.	.	.	.
.	.	4G/	.	.	.
.	.	2A/	.	1c	et
2E\	.	2G/	.	.	.
=31-	=31-	=31-	=31-	=31-	=31-
*	*	*	*	*lig	*
2D/	ter-	2A/	.	1d	ter-
2BB-/	.	2B-\	.	.	.
2C/	.	2G/	.	1e	.
*custos:BB-	*	*custos:F	*	*	*
2AA/	.	2A/	.	.	.
*	*	*	*	*Xlig	*
!LO:LB:g=original	!	!LO:LB:g=original	!	!	!
=32-	=32-	=32-	=32-	=32-	=32-
*	*	*	*	*lig	*
2.BB-/	.	1F	.	1d	.
4AA/	.	.	.	.	.
1GG	.	2G/	-ra	1c	.
.	.	2d\	glo-	.	.
*	*	*	*	*Xlig	*
=33-	=33-	=33-	=33-	=33-	=33-
2FF/	-ra	2.f\	.	1d	-ra
2F\	glo-	.	.	.	.
.	.	4e\	.	.	.
2.F\	-ri-	2d\	[-ri-]	1f	glo-
.	.	2c\	-a	.	.
4E\	.	.	.	.	.
=34-	=34-	=34-	=34-	=34-	=34-
*	*	*	*	*lig	*
2.D/	.	2B-\	tu-	1f	-ri-
.	.	4A/	.	.	.
8C/L	.	4G/	.	.	.
8BB-/J	.	.	.	.	.
2AA/	.	1A	.	1c	.
2FF/	-a	.	.	.	.
*	*	*	*	*Xlig	*
=35-	=35-	=35-	=35-	=35-	=35-
*	*	*	*	*lig	*
1C	tu-	2G/	-a	1c	a
*	*	*	*ij	*	*
.	.	2c\	glo-	.	.
*	*	*	*	*custos:F	*
2FF/	-a	2.c\	-ri-	1A	.
2F\	glo-	.	.	.	.
.	.	4B-\	.	.	.
*	*	*	*	*Xlig	*
!	!	!	!	!LO:LB:g=original	!
=36-	=36-	=36-	=36-	=36-	=36-
!	!	!	!	!LO:TX:t=P:problem=cezura pod 1. linią	!
2.F\	ri-	2.A/	.	1F,	.
4E\	.	4G/	.	.	.
*	*	*	*	*lig	*
2D/	-a	2F/	.	1B-	tu-
*	*	*custos:c	*	*	*
2BB-/	.	2f\	.	.	.
!	!	!LO:PB:g=original	!	!	!
=37-	=37-	=37-	=37-	=37-	=37-
2C/	.	2c\	.	1A	.
2D/	.	2A/	.	.	.
*custos:BB-	*	*	*	*	*
*	*	*	*	*Xlig	*
!LO:LB:g=original	!	!	!	!	!
*	*	*	*	*lig	*
2BB-/	.	2d\	-a	1G	.
2C/	.	4c\	.	.	.
.	.	4B-\	.	.	.
=38-	=38-	=38-	=38-	=38-	=38-
2AA/	.	0c	tu-	1A	.
2FF/	.	.	.	.	.
*	*	*	*	*Xlig	*
*	*	*	*	*lig	*
1C	tu-	.	.	1G	-a
=39-	=39-	=39-	=39-	=39-	=39-
1FF	-a	1A	-a	[0Fl;;	.
*	*	*	*Xij	*	*
2rAA	.	2r	.	.	.
2FF/	glo-	2A/	glo-	.	.
*	*	*	*	*Xlig	*
=40-	=40-	=40-	=40-	=40-	=40-
2FF/	-ri-	2A/	-ri-	0F_	.
2FF/	-a	2A/	-a	.	.
1BB-	tu-	1B-	tu-	.	.
=41-	=41-	=41-	=41-	=41-	=41-
0FFl;;	-a	0Al;;	-a	0F]	.
!	!	!LO:LB:g=original	!	!	!
=42-	=42-	=42-	=42-	=42-	=42-
1.F	O-	2.c\	O-	1A	O-
.	.	4B-\	.	.	.
*	*	*	*	*lig	*
.	.	2A/	.	1c	-ſan-
2E\	.	1G/	.	.	.
=43-	=43-	=43-	=43-	=43-	=43-
1D	-ſan-	.	.	1d	.
.	.	2F/	-ſan-	.	.
*	*	*	*	*Xlig	*
*custos:D	*	*	*	*	*
!	!	!LO:TX:t=P:problem=cezura na 1. linii	!	!	!
1C	-na	1G,	-na	1e	.
!LO:LB:g=original	!	!	!	!	!
=44-	=44-	=44-	=44-	=44-	=44-
*	*	*	*	*lig	*
2D/	.	1F	in	1d	.
1BB-	.	.	.	.	.
.	.	1.G	ex-	1B-	.
2GG/	.	.	.	.	.
*	*	*	*	*Xlig	*
=45-	=45-	=45-	=45-	=45-	=45-
!	!	!	!	!LO:TX:t=P:problem=cezura na 2. linii	!
4C/	.	.	.	1c,	-na
4BB-/	.	.	.	.	.
4AA/	.	4A/	.	.	.
4GG/	.	4B-/	.	.	.
*	*	*	*	*custos:f	*
2FF/	.	4c\	.	1f	in
.	.	4B-\	.	.	.
4F\	in	4A/	.	.	.
4E\	.	4G/	.	.	.
!	!	!	!	!LO:LB:g=original	!
=46-	=46-	=46-	=46-	=46-	=46-
*	*	*	*	*lig	*
4D/	.	2A/	-cel-	1f	ex-
4C/	.	.	.	.	.
2BB-/	ex-	2B-\	-sis	.	.
1C	-cel-	1G	O-	1c	.
*	*	*	*	*Xlig	*
=47-	=47-	=47-	=47-	=47-	=47-
*	*	*	*	*lig	*
1FF	-ſis	2F/	-san-	1A	-cel-
*	*	*custos:D	*	*	*
.	.	2C/	-na	.	.
!	!	!LO:LB:g=original	!	!	!
*	*ij	*	*	*	*
2BB-/	in	2D/	in	1F	.
2AA/	ex-	1F/	ex-	.	.
*	*	*	*	*Xlig	*
=48-	=48-	=48-	=48-	=48-	=48-
*	*	*	*	*lig	*
1GG	-cel-	.	.	1B-	.
.	.	2E/	-cel-	.	.
!	!	!LO:TX:t=P:problem=cezura na 1. linii	!	!	!
4FF/	.	2F,/	-sis	1A	.
4GG/	.	.	.	.	.
*	*	*	*ij	*	*
4AA/	.	1c\	O-	.	.
4BB-/	.	.	.	.	.
*	*	*	*	*Xlig	*
=49-	=49-	=49-	=49-	=49-	=49-
*	*	*	*	*lig	*
2C/	.	.	.	1G	.
2BB-/	.	2d\	-san-	.	.
2AA/	.	2c\	-na	1A	.
*custos:BB	*	*	*	*	*
2D/	.	2A/	in	.	.
*	*	*	*	*Xlig	*
!LO:LB:g=original	!	!	!	!	!
=50-	=50-	=50-	=50-	=50-	=50-
*	*	*	*	*lig	*
2BB-/	.	2d\	ex-	1G	-ſis
2C/	.	2c\	-cel-	.	.
1FF	-ſis	1A	-sis	[1Fl;;	.
*	*	*	*	*Xlig	*
=51-	=51-	=51-	=51-	=51-	=51-
2rC	.	2r	.	0F_	.
2BB-/	in	2B-\	in	.	.
2AA/	.	2c\	ex-	.	.
2FF/	ex-	2A/	.	.	.
=52-	=52-	=52-	=52-	=52-	=52-
1BB-	-cel-	1B-	-cel-	0.F]	.
0FFl;;	-ſis	0cl;;	-sis	.	.
*	*Xij	*	*Xij	*	*
!	!	!LO:LB:g=original	!	!	!
=53-	=53-	=53-	=53-	=53-	=53-
.	.	.	.	.	.
1F	Be-	2.c\	Be-	1f	Be-
.	.	4B-\	.	.	.
=54-	=54-	=54-	=54-	=54-	=54-
*	*	*	*	*lig	*
2.F\	-ne-	4A/	.	1f	-ne-
.	.	4G/	.	.	.
.	.	4A/	.	.	.
4E\	.	4B-\	.	.	.
4C/	.	2.c\	-ne-	1e	.
4D/	.	.	.	.	.
4E\	.	.	.	.	.
4F\	.	4B-\	.	.	.
*	*	*	*	*Xlig	*
=55-	=55-	=55-	=55-	=55-	=55-
*	*	*	*	*lig	*
2.G\	.	4G/	.	1d	.
.	.	4A/	.	.	.
.	.	2B-\	.	.	.
*custos:D	*	*	*	*	*
4F\	.	.	.	.	.
*	*	*	*	*custos:c	*
!LO:LB:g=original	!	!	!	!	!
2.D/	.	2A/	.	1f	.
.	.	2F/	-di-	.	.
4E\	.	.	.	.	.
*	*	*	*	*Xlig	*
!	!	!	!	!LO:PB:g=original	!
=56-	=56-	=56-	=56-	=56-	=56-
2.F\	.	1A	.	1c	-di-
4E\	.	.	.	.	.
4C/	.	2G/	-ctus	1c	ctus
4D/	.	.	.	.	.
*	*	*	*ij	*	*
2E\	.	1c\	Be-	.	.
=57-	=57-	=57-	=57-	=57-	=57-
1D	di-	.	.	1d	.
.	.	2B-\	.	.	.
*	*	*	*	*lig	*
1C	-ctus	2c\	.	1e	.
.	.	2G/	.	.	.
=58-	=58-	=58-	=58-	=58-	=58-
!	!	!	!	!LO:TX:t=P:problem=kreska pseudotaktowa	!
2rC	.	2B-\	.	1f	.
2F\	qui	2A/	-ne-	.	.
*	*	*custos:d	*	*	*
*	*	*	*	*Xlig	*
1ryy	.	1ryy	.	1f	.
=59-	=59-	=59-	=59-	=59-	=59-
*	*	*	*	*lig	*
0ryy	.	0ryy	.	1f	.
.	.	.	.	1c	.
*	*	*	*	*Xlig	*
=60-	=60-	=60-	=60-	=60-	=60-
*	*	*	*	*lig	*
0ryy	.	0ryy	.	1c	.
.	.	.	.	1A	.
*	*	*	*	*Xlig	*
=61-	=61-	=61-	=61-	=61-	=61-
0ryy	.	0ryy	.	1F	.
*	*	*	*	*lig	*
.	.	.	.	1B-	.
=62-	=62-	=62-	=62-	=62-	=62-
0ryy	.	0ryy	.	1A	.
*	*	*	*	*Xlig	*
!	!	!	!	!LO:TX:t=P:problem=kreska pseudotaktowa	!
.	.	.	.	1G	.
!	!	!LO:LB:g=original	!	!	!
=63-	=63-	=63-	=63-	=63-	=63-
1D	Ve-	1d	-di-	1A	Qui
1C	-nit	1G	-ctus	1c	Ve-
*	*	*	*Xij	*	*
=64-	=64-	=64-	=64-	=64-	=64-
*	*ij	*	*	*lig	*
1G	qui	2r	.	1d	.
.	.	2G/	Qui	.	.
*	*	*	*	*custos:d	*
4C/	Ve-	2.G/	ve-	1e	.
4D/	.	.	.	.	.
4E\	.	.	.	.	.
4F\	.	4A/	.	.	.
*	*	*	*	*Xlig	*
!	!	!	!	!LO:LB:g=original	!
=65-	=65-	=65-	=65-	=65-	=65-
*	*	*	*	*lig	*
2G\	.	4B-\	.	1d	.
.	.	4A/	.	.	.
4GG/	.	4B-\	.	.	.
4AA/	.	4c\	.	.	.
4BB-/	.	1d	.	1B-	.
4C/	.	.	.	.	.
*custos:C	*	*	*	*	*
2D/	.	.	.	.	.
*	*	*	*	*Xlig	*
!LO:LB:g=original	!	!	!	!	!
=66-	=66-	=66-	=66-	=66-	=66-
!	!	!	!	!LO:TX:t=P:problem=cezura na 2. linii	!
1C	.	2G/	-nit	1c,	-nit
.	.	2c\	in	.	.
!LO:TX:t=P:problem=cezura pod 1. linią	!	!	!	!	!
2FF,/	-nit	1.c	no-	1f	in
*	*Xij	*	*	*	*
2F\	in	.	.	.	.
=67-	=67-	=67-	=67-	=67-	=67-
*	*	*	*	*lig	*
1.F	no-	.	.	1f	.
.	.	2B-\	.	.	.
.	.	2A/	.	1c	.
2E\	.	2G/	.	.	.
*	*	*	*	*Xlig	*
=68-	=68-	=68-	=68-	=68-	=68-
2D/	-mi-	2F/	.	1A	mi-
2C/	-ne	2C/	-mi-	.	.
!	!	!LO:TX:t=P:problem=cezura pod 1. linią	!	!LO:TX:t=P:problem=cezura pod 1. linią	!
2BB-/	.	2D,/	-ne	1F,	-ne
2AA/	Do-	1F/	Do-	.	.
=69-	=69-	=69-	=69-	=69-	=69-
2.GG/	.	.	.	1G	Do-
.	.	4E/	.	.	.
*	*	*custos:E	*	*	*
4FF/	.	4D/	.	.	.
!	!	!LO:LB:g=original	!	!	!
*	*	*	*	*lig	*
1GG	-mi-	2E/	.	1B-	.
.	.	2E/	.	.	.
=70-	=70-	=70-	=70-	=70-	=70-
2FF/	-ni	4F/	.	1A	.
.	.	4G/	.	.	.
2F\	in	4A/	.	.	.
.	.	4B-\	.	.	.
*	*	*	*	*Xlig	*
*	*	*	*	*lig	*
2E\	no-	4c\	.	1G	.
.	.	4d\	.	.	.
2C/	-mi-	2e\	.	.	.
=71-	=71-	=71-	=71-	=71-	=71-
*custos:C	*	*	*	*	*
1F	-ne	2d\	.	1A	.
.	.	2c\	.	.	.
*	*	*	*	*Xlig	*
!LO:LB:g=original	!	!	!	!	!
*	*	*	*	*lig	*
2.C/	Do-	2c\	-mi-	1G	-mi-
.	.	2G/	.	.	.
4C/	-mi-	.	.	.	.
=72-	=72-	=72-	=72-	=72-	=72-
2FF/	-ni	2c\	-ni	[0Fl;;	-ni
*	*ij	*	*ij	*	*
2FF/	in	2A\	in	.	.
2BB-/	no-	2F/	no-	.	.
2AA/	.	1A\	.	.	.
*	*	*	*	*Xlig	*
=73-	=73-	=73-	=73-	=73-	=73-
2FF/	.	.	.	0F_	.
2BB-/	-mi-	2B-\	-mi-	.	.
2AA/	-ne	2c\	-ne	.	.
1BB-/	Do-	2F/	Do-	.	.
=74-	=74-	=74-	=74-	=74-	=74-
.	.	2.B-\	.	0.F]	.
4AA/	.	.	.	.	.
4GG/	-mi-	4B-\	-mi-	.	.
0FFl;;	-ni	0Al;;	-ni	.	.
*	*Xij	*	*Xij	*	*
==	==	==	==	==	==
*-	*-	*-	*-	*-	*-
!!!system-decoration: [s1,s2,s3]
!!!RDF**kern: l = terminal long
!!!ENC: Marta Lawrence
!!!END: 2021-03-21
!!!ENC: Kamil Watkowski
!!!END: 2021-03-07
